packages/dnb-ui-lib/assets/icons/pay_from_medium.svg

<svg width="24" height="24" viewBox="0 0 24 24" fill="none" xmlns="http://www.w3.org/2000/svg">
<path d="M20.25 8.49998C20.25 8.9142 20.5858 9.24998 21 9.24998C21.4142 9.24998 21.75 8.9142 21.75 8.49998H20.25ZM21.75 20.5C21.75 20.0858 21.4142 19.75 21 19.75C20.5858 19.75 20.25 20.0858 20.25 20.5H21.75ZM15.4473 1.50128L15.7697 2.17842V2.17842L15.4473 1.50128ZM16.835 2.11679L16.1167 2.3323V2.3323L16.835 2.11679ZM15.5 13.75C15.0858 13.75 14.75 14.0858 14.75 14.5C14.75 14.9142 15.0858 15.25 15.5 15.25V13.75ZM19.9697 16.4697C19.6768 16.7625 19.6768 17.2374 19.9697 17.5303C20.2626 17.8232 20.7374 17.8232 21.0303 17.5303L19.9697 16.4697ZM23 14.5L23.5303 15.0303C23.8232 14.7374 23.8232 14.2625 23.5303 13.9697L23 14.5ZM21.0303 11.4697C20.7374 11.1768 20.2626 11.1768 19.9697 11.4697C19.6768 11.7625 19.6768 12.2374 19.9697 12.5303L21.0303 11.4697ZM19 22.25H3V23.75H19V22.25ZM1.75 21V7.99998H0.25V21H1.75ZM3 22.25C2.30964 22.25 1.75 21.6903 1.75 21H0.25C0.25 22.5188 1.48122 23.75 3 23.75V22.25ZM19 23.75C20.5188 23.75 21.75 22.5188 21.75 21H20.25C20.25 21.6903 19.6904 22.25 19 22.25V23.75ZM19 6.74998C19.6904 6.74998 20.25 7.30963 20.25 7.99998H21.75C21.75 6.4812 20.5188 5.24998 19 5.24998V6.74998ZM3 5.24998C1.48122 5.24998 0.25 6.4812 0.25 7.99998H1.75C1.75 7.30963 2.30964 6.74998 3 6.74998V5.24998ZM20.25 7.99998V8.49998H21.75V7.99998H20.25ZM20.25 20.5V21H21.75V20.5H20.25ZM3 6.74998H6V5.24998H3V6.74998ZM6.32245 6.67713L15.7697 2.17842L15.1248 0.82413L5.67755 5.32284L6.32245 6.67713ZM6 6.74998H18V5.24998H6V6.74998ZM18 6.74998H19V5.24998H18V6.74998ZM16.1167 2.3323L17.2816 6.21549L18.7184 5.78447L17.5534 1.90128L16.1167 2.3323ZM15.7697 2.17842C15.9081 2.11253 16.0726 2.18551 16.1167 2.3323L17.5534 1.90128C17.2452 0.87375 16.0934 0.36291 15.1248 0.82413L15.7697 2.17842ZM21.0303 17.5303L23.5303 15.0303L22.4697 13.9697L19.9697 16.4697L21.0303 17.5303ZM23.5303 13.9697L21.0303 11.4697L19.9697 12.5303L22.4697 15.0303L23.5303 13.9697ZM15.5 15.25H23V13.75H15.5V15.25Z" fill="black"/>
</svg>

<svg width="24" height="24" viewBox="0 0 24 24" fill="none" xmlns="http://www.w3.org/2000/svg"><path d="M20.25 8.5a.75.75 0 001.5 0h-1.5zm1.5 12a.75.75 0 00-1.5 0h1.5zM15.447 1.501l.323.677-.323-.677zm1.388.616l-.718.215.718-.215zM15.5 13.75a.75.75 0 000 1.5v-1.5zm4.47 2.72a.75.75 0 101.06 1.06l-1.06-1.06zM23 14.5l.53.53a.75.75 0 000-1.06l-.53.53zm-1.97-3.03a.75.75 0 10-1.06 1.06l1.06-1.06zM19 22.25H3v1.5h16v-1.5zM1.75 21V8H.25v13h1.5zM3 22.25c-.69 0-1.25-.56-1.25-1.25H.25A2.75 2.75 0 003 23.75v-1.5zm16 1.5A2.75 2.75 0 0021.75 21h-1.5c0 .69-.56 1.25-1.25 1.25v1.5zm0-17c.69 0 1.25.56 1.25 1.25h1.5A2.75 2.75 0 0019 5.25v1.5zM3 5.25A2.75 2.75 0 00.25 8h1.5c0-.69.56-1.25 1.25-1.25v-1.5zM20.25 8v.5h1.5V8h-1.5zm0 12.5v.5h1.5v-.5h-1.5zM3 6.75h3v-1.5H3v1.5zm3.322-.073l9.448-4.499-.645-1.354-9.447 4.499.644 1.354zM6 6.75h12v-1.5H6v1.5zm12 0h1v-1.5h-1v1.5zm-1.883-4.418l1.165 3.883 1.436-.43L17.553 1.9l-1.436.431zm-.347-.154a.25.25 0 01.347.154l1.436-.43A1.75 1.75 0 0015.125.823l.645 1.354zm5.26 15.352l2.5-2.5-1.06-1.06-2.5 2.5 1.06 1.06zm2.5-3.56l-2.5-2.5-1.06 1.06 2.5 2.5 1.06-1.06zm-8.03 1.28H23v-1.5h-7.5v1.5z" fill="#000"/></svg>
